branches/nugui/src/gui/icons/build_addh.svg

<?xml version="1.0" encoding="UTF-8" standalone="no"?>
<!-- Created with Inkscape (http://www.inkscape.org/) -->

<svg
   xmlns:dc="http://purl.org/dc/elements/1.1/"
   xmlns:cc="http://creativecommons.org/ns#"
   xmlns:rdf="http://www.w3.org/1999/02/22-rdf-syntax-ns#"
   xmlns:svg="http://www.w3.org/2000/svg"
   xmlns="http://www.w3.org/2000/svg"
   xmlns:xlink="http://www.w3.org/1999/xlink"
   xmlns:inkscape="http://www.inkscape.org/namespaces/inkscape"
   version="1.0"
   width="100"
   height="100"
   id="svg2">
  <metadata
     id="metadata2566">
    <rdf:RDF>
      <cc:Work
         rdf:about="">
        <dc:format>image/svg+xml</dc:format>
        <dc:type
           rdf:resource="http://purl.org/dc/dcmitype/StillImage" />
      </cc:Work>
    </rdf:RDF>
  </metadata>
  <defs
     id="defs4">
    <linearGradient
       id="linearGradient3215">
      <stop
         id="stop3217"
         style="stop-color:#ffffff;stop-opacity:1"
         offset="0" />
      <stop
         id="stop3219"
         style="stop-color:#e0e6d8;stop-opacity:1"
         offset="1" />
    </linearGradient>
    <linearGradient
       id="linearGradient3209">
      <stop
         id="stop3211"
         style="stop-color:#ffffff;stop-opacity:1"
         offset="0" />
      <stop
         id="stop3213"
         style="stop-color:#7c7e7e;stop-opacity:1"
         offset="1" />
    </linearGradient>
    <linearGradient
       id="linearGradient3384">
      <stop
         id="stop3386"
         style="stop-color:#0000ff;stop-opacity:1"
         offset="0" />
      <stop
         id="stop3388"
         style="stop-color:#000000;stop-opacity:1"
         offset="1" />
    </linearGradient>
    <linearGradient
       id="linearGradient3252">
      <stop
         id="stop3254"
         style="stop-color:#ffffff;stop-opacity:1"
         offset="0" />
      <stop
         id="stop3256"
         style="stop-color:#7f7fff;stop-opacity:0"
         offset="1" />
    </linearGradient>
    <linearGradient
       x1="25.398125"
       y1="63.345894"
       x2="90.625114"
       y2="63.345894"
       id="linearGradient3255"
       xlink:href="#linearGradient3384"
       gradientUnits="userSpaceOnUse"
       gradientTransform="matrix(0.2688926,0.2688926,-0.2688926,0.2688926,38.227733,-8.4494346)" />
    <radialGradient
       cx="58.01162"
       cy="63.345894"
       r="33.113495"
       fx="58.01162"
       fy="63.345894"
       id="radialGradient3257"
       xlink:href="#linearGradient3252"
       gradientUnits="userSpaceOnUse"
       gradientTransform="matrix(0.2134373,0,0,0.2134373,19.805211,5.9610473)" />
    <linearGradient
       x1="25.398125"
       y1="63.345894"
       x2="90.625114"
       y2="63.345894"
       id="linearGradient3259"
       xlink:href="#linearGradient3209"
       gradientUnits="userSpaceOnUse"
       gradientTransform="matrix(-0.1195545,0.4056655,0.4056655,0.1195545,132.49123,-3.6233146)" />
    <radialGradient
       cx="58.01162"
       cy="63.345894"
       r="33.113495"
       fx="58.01162"
       fy="63.345894"
       id="radialGradient3261"
       xlink:href="#linearGradient3215"
       gradientUnits="userSpaceOnUse"
       gradientTransform="matrix(-0.1451212,0.07905406,0.07905406,0.1451212,156.01982,7.0898926)" />
  </defs>
  <path
     d="m 31.046613,60.206994 c 6.61569,12.14962 21.828776,16.634552 33.977239,10.016739 C 77.17232,63.605912 81.65459,48.39204 75.034639,36.244736 68.418941,24.095114 53.205858,19.610185 41.0574,26.227993 28.908939,32.845806 24.426667,48.059692 31.046613,60.206994 l 0,0 z"
     inkscape:connector-curvature="0"
     id="path3416"
     style="fill:#282828;fill-opacity:1;fill-rule:evenodd;stroke:none" />
  <g
     transform="matrix(-1.7734271,0.9660656,0.9660656,1.7734271,90.321171,-33.452121)"
     id="g3418">
    <path
       d="m 49.066773,24.22879 c 0.0012,6.850275 -5.551709,12.404157 -12.401985,12.404157 -6.850275,0 -12.403184,-5.553882 -12.401985,-12.404157 -0.0012,-6.850276 5.55171,-12.404157 12.401985,-12.404157 6.850276,0 12.403184,5.553881 12.401985,12.404157 l 0,0 z"
       inkscape:connector-curvature="0"
       id="path3420"
       style="fill:#0000ff;fill-opacity:1;fill-rule:evenodd;stroke:#000000;stroke-width:0.38027155px;stroke-linecap:butt;stroke-linejoin:miter;stroke-opacity:1" />
    <path
       d="m 45.562914,32.95223 c -4.843029,4.844723 -12.696715,4.845411 -17.54059,0.0015 -4.843878,-4.843877 -4.843189,-12.697563 0.0015,-17.54059 4.843028,-4.844725 12.696714,-4.845413 17.540591,-0.0015 4.843875,4.843876 4.843187,12.697563 -0.0015,17.540591 l 0,0 z"
       inkscape:connector-curvature="0"
       id="path3422"
       style="opacity:0.71739131;fill:url(#linearGradient3255);fill-opacity:1;fill-rule:evenodd;stroke:none" />
    <path
       d="m 39.147988,19.481422 c 6.73e-4,3.844893 -3.11604,6.962154 -6.960935,6.962154 -3.844894,0 -6.961608,-3.117261 -6.960935,-6.962154 -6.73e-4,-3.844895 3.116041,-6.962154 6.960935,-6.962154 3.844895,0 6.961608,3.117259 6.960935,6.962154 l 0,0 z"
       inkscape:connector-curvature="0"
       id="path3424"
       style="fill:url(#radialGradient3257);fill-opacity:1;fill-rule:evenodd;stroke:none" />
  </g>
  <g
     transform="matrix(1.2373553,0,0,1.2373553,-137.62701,40.437534)"
     id="g3221">
    <path
       d="m 141.67823,35.869444 c 3.64329,6.690859 12.02121,9.160734 18.71144,5.516271 6.69022,-3.644469 9.15863,-12.022827 5.51299,-18.712409 -3.6433,-6.69086 -12.02122,-9.160733 -18.71144,-5.516272 -6.69022,3.644464 -9.15863,12.022829 -5.51299,18.71241 l 0,0 z"
       inkscape:connector-curvature="0"
       id="path2217"
       style="fill:#282828;fill-opacity:1;fill-rule:evenodd;stroke:none" />
    <path
       d="m 139.29082,34.057953 c 3.64329,6.690859 12.02122,9.160734 18.71144,5.516268 6.69022,-3.644464 9.15863,-12.022826 5.51299,-18.712409 -3.64329,-6.69086 -12.02122,-9.160733 -18.71144,-5.516268 -6.69022,3.644465 -9.15863,12.022825 -5.51299,18.712409 l 0,0 z"
       inkscape:connector-curvature="0"
       id="path2221"
       style="fill:#e7e8e6;fill-opacity:1;fill-rule:evenodd;stroke:#000000;stroke-width:0.42291585px;stroke-linecap:butt;stroke-linejoin:miter;stroke-opacity:1" />
    <path
       d="m 147.35383,40.71346 c 7.30735,2.154953 14.97791,-2.022672 17.13158,-9.330397 2.15368,-7.307729 -2.02529,-14.97755 -9.3334,-17.129945 -7.30735,-2.154955 -14.9779,2.02267 -17.13158,9.330397 -2.15367,7.307726 2.0253,14.977549 9.3334,17.129945 l 0,0 z"
       inkscape:connector-curvature="0"
       id="path2223"
       style="opacity:0.71739131;fill:url(#linearGradient3259);fill-opacity:1;fill-rule:evenodd;stroke:none" />
    <path
       d="m 147.87594,23.447011 c 1.42363,2.614487 4.69735,3.579604 7.31159,2.15551 2.61424,-1.424093 3.57878,-4.697981 2.15423,-7.311968 -1.42363,-2.614488 -4.69735,-3.579604 -7.31159,-2.155511 -2.61424,1.424094 -3.57878,4.697981 -2.15423,7.311969 l 0,0 z"
       inkscape:connector-curvature="0"
       id="path2225"
       style="fill:url(#radialGradient3261);fill-opacity:1;fill-rule:evenodd;stroke:none" />
  </g>
  <use
     transform="translate(29.109972,-50.810141)"
     id="use3231"
     x="0"
     y="0"
     width="100"
     height="100"
     xlink:href="#g3221" />
  <use
     transform="translate(-31.227071,-50.810141)"
     id="use3233"
     x="0"
     y="0"
     width="100"
     height="100"
     xlink:href="#g3221" />
</svg>

<?xml version="1.0" encoding="UTF-8" standalone="no"?>
<!-- Created with Inkscape (http://www.inkscape.org/) -->
<svg
   xmlns:svg="http://www.w3.org/2000/svg"
   xmlns="http://www.w3.org/2000/svg"
   xmlns:xlink="http://www.w3.org/1999/xlink"
   version="1.0"
   width="100"
   height="100"
   id="svg2">
  <defs
     id="defs4">
    <linearGradient
       id="linearGradient3215">
      <stop
         id="stop3217"
         style="stop-color:#ffffff;stop-opacity:1"
         offset="0" />
      <stop
         id="stop3219"
         style="stop-color:#e0e6d8;stop-opacity:1"
         offset="1" />
    </linearGradient>
    <linearGradient
       id="linearGradient3209">
      <stop
         id="stop3211"
         style="stop-color:#ffffff;stop-opacity:1"
         offset="0" />
      <stop
         id="stop3213"
         style="stop-color:#7c7e7e;stop-opacity:1"
         offset="1" />
    </linearGradient>
    <linearGradient
       id="linearGradient3384">
      <stop
         id="stop3386"
         style="stop-color:#0000ff;stop-opacity:1"
         offset="0" />
      <stop
         id="stop3388"
         style="stop-color:#000000;stop-opacity:1"
         offset="1" />
    </linearGradient>
    <linearGradient
       id="linearGradient3252">
      <stop
         id="stop3254"
         style="stop-color:#ffffff;stop-opacity:1"
         offset="0" />
      <stop
         id="stop3256"
         style="stop-color:#7f7fff;stop-opacity:0"
         offset="1" />
    </linearGradient>
    <linearGradient
       x1="25.398125"
       y1="63.345894"
       x2="90.625114"
       y2="63.345894"
       id="linearGradient3255"
       xlink:href="#linearGradient3384"
       gradientUnits="userSpaceOnUse"
       gradientTransform="matrix(0.2688926,0.2688926,-0.2688926,0.2688926,38.227733,-8.4494346)" />
    <radialGradient
       cx="58.01162"
       cy="63.345894"
       r="33.113495"
       fx="58.01162"
       fy="63.345894"
       id="radialGradient3257"
       xlink:href="#linearGradient3252"
       gradientUnits="userSpaceOnUse"
       gradientTransform="matrix(0.2134373,0,0,0.2134373,19.805211,5.9610473)" />
    <linearGradient
       x1="25.398125"
       y1="63.345894"
       x2="90.625114"
       y2="63.345894"
       id="linearGradient3259"
       xlink:href="#linearGradient3209"
       gradientUnits="userSpaceOnUse"
       gradientTransform="matrix(-0.1195545,0.4056655,0.4056655,0.1195545,132.49123,-3.6233146)" />
    <radialGradient
       cx="58.01162"
       cy="63.345894"
       r="33.113495"
       fx="58.01162"
       fy="63.345894"
       id="radialGradient3261"
       xlink:href="#linearGradient3215"
       gradientUnits="userSpaceOnUse"
       gradientTransform="matrix(-0.1451212,7.905406e-2,7.905406e-2,0.1451212,156.01982,7.0898926)" />
  </defs>
  <path
     d="M 31.046613,60.206994 C 37.662303,72.356614 52.875389,76.841546 65.023852,70.223733 C 77.17232,63.605912 81.65459,48.39204 75.034639,36.244736 C 68.418941,24.095114 53.205858,19.610185 41.0574,26.227993 C 28.908939,32.845806 24.426667,48.059692 31.046613,60.206994 L 31.046613,60.206994 z"
     id="path3416"
     style="fill:#282828;fill-opacity:1;fill-rule:evenodd;stroke:none" />
  <g
     transform="matrix(-1.7734271,0.9660656,0.9660656,1.7734271,90.321171,-33.452121)"
     id="g3418">
    <path
       d="M 49.066773,24.22879 C 49.067973,31.079065 43.515064,36.632947 36.664788,36.632947 C 29.814513,36.632947 24.261604,31.079065 24.262803,24.22879 C 24.261603,17.378514 29.814513,11.824633 36.664788,11.824633 C 43.515064,11.824633 49.067972,17.378514 49.066773,24.22879 L 49.066773,24.22879 L 49.066773,24.22879 z"
       id="path3420"
       style="fill:#0000ff;fill-opacity:1;fill-rule:evenodd;stroke:#000000;stroke-width:0.38027155px;stroke-linecap:butt;stroke-linejoin:miter;stroke-opacity:1" />
    <path
       d="M 45.562914,32.95223 C 40.719885,37.796953 32.866199,37.797641 28.022324,32.95373 C 23.178446,28.109853 23.179135,20.256167 28.023824,15.41314 C 32.866852,10.568415 40.720538,10.567727 45.564415,15.41164 C 50.40829,20.255516 50.407602,28.109203 45.562915,32.952231 L 45.562915,32.952231 L 45.562914,32.95223 z"
       id="path3422"
       style="opacity:0.71739131;fill:url(#linearGradient3255);fill-opacity:1;fill-rule:evenodd;stroke:none" />
    <path
       d="M 39.147988,19.481422 C 39.148661,23.326315 36.031948,26.443576 32.187053,26.443576 C 28.342159,26.443576 25.225445,23.326315 25.226118,19.481422 C 25.225445,15.636527 28.342159,12.519268 32.187053,12.519268 C 36.031948,12.519268 39.148661,15.636527 39.147988,19.481422 L 39.147988,19.481422 z"
       id="path3424"
       style="fill:url(#radialGradient3257);fill-opacity:1;fill-rule:evenodd;stroke:none" />
  </g>
  <g
     transform="matrix(1.2373553,0,0,1.2373553,-137.62701,40.437534)"
     id="g3221">
    <path
       d="M 141.67823,35.869444 C 145.32152,42.560303 153.69944,45.030178 160.38967,41.385715 C 167.07989,37.741246 169.5483,29.362888 165.90266,22.673306 C 162.25936,15.982446 153.88144,13.512573 147.19122,17.157034 C 140.501,20.801498 138.03259,29.179863 141.67823,35.869444 L 141.67823,35.869444 L 141.67823,35.869444 z"
       id="path2217"
       style="fill:#282828;fill-opacity:1;fill-rule:evenodd;stroke:none" />
    <path
       d="M 139.29082,34.057953 C 142.93411,40.748812 151.31204,43.218687 158.00226,39.574221 C 164.69248,35.929757 167.16089,27.551395 163.51525,20.861812 C 159.87196,14.170952 151.49403,11.701079 144.80381,15.345544 C 138.11359,18.990009 135.64518,27.368369 139.29082,34.057953 L 139.29082,34.057953 z"
       id="path2221"
       style="fill:#e7e8e6;fill-opacity:1;fill-rule:evenodd;stroke:#000000;stroke-width:0.42291585px;stroke-linecap:butt;stroke-linejoin:miter;stroke-opacity:1" />
    <path
       d="M 147.35383,40.71346 C 154.66118,42.868413 162.33174,38.690788 164.48541,31.383063 C 166.63909,24.075334 162.46012,16.405513 155.15201,14.253118 C 147.84466,12.098163 140.17411,16.275788 138.02043,23.583515 C 135.86676,30.891241 140.04573,38.561064 147.35383,40.71346 L 147.35383,40.71346 z"
       id="path2223"
       style="opacity:0.71739131;fill:url(#linearGradient3259);fill-opacity:1;fill-rule:evenodd;stroke:none" />
    <path
       d="M 147.87594,23.447011 C 149.29957,26.061498 152.57329,27.026615 155.18753,25.602521 C 157.80177,24.178428 158.76631,20.90454 157.34176,18.290553 C 155.91813,15.676065 152.64441,14.710949 150.03017,16.135042 C 147.41593,17.559136 146.45139,20.833023 147.87594,23.447011 L 147.87594,23.447011 z"
       id="path2225"
       style="fill:url(#radialGradient3261);fill-opacity:1;fill-rule:evenodd;stroke:none" />
  </g>
  <use
     transform="translate(29.109972,-50.810141)"
     id="use3231"
     x="0"
     y="0"
     width="100"
     height="100"
     xlink:href="#g3221" />
  <use
     transform="translate(-31.227071,-50.810141)"
     id="use3233"
     x="0"
     y="0"
     width="100"
     height="100"
     xlink:href="#g3221" />
</svg>
